X: 01014
T: BURKE MOUNTAIN
C: Bob McQuillen Sept. '75
B: Bob's Note Book 1 #14
%R: reel
Z: 2019 John Chambers <jc:trillian.mit.edu>
M: C
L: 1/8
K: D
(3(ABc) \
| d2A2 FAde | f2d2 d2df | a2b2 a2f2 | g2 e4 (3(ABc) |\
| d2A2 FAde | f2d2 d2fg | a2g2 e2a2 | f2 d4 :|
|: cd \
| e2c2 ABcd | e2c2 A2cd | e2f2 gfed | c2e2 agfe |\
| d2A2 FAde | f2d2 A2fg | abag fedc | d4- d2 :|
%%begintext align
%% It's beautiful with Barney
%% up on Burke Mountain, VT.
%%endtext

%%sep 1 1 500

%%sep 1 1 500

